X: 30
T: Hollow Poplar
R: reel
M: C|
F: http://www.thursdaycontra.com/~spuds/tunes/reels/HollowPoplar.abc
K: G
Bc |\
"G"d4 d2{c}Bc | d2B2 AGAB | "C"c4 c2{B}AB | "Am"c2B2 AGEG |\
"G"DEGA "D7"Bdef | "Em"g2f2 "D7"edBA | "G"G2BG "D7"AGF2 | "G"G6 :|
|: Bc |\
"G"d4g4 | g2f2e2d2 | "D"fa-af a2{g}fg | a2f2 edef |\
"G(Em)"gfef gfef | "C"g2f2 edBA | "G"G2BG "D7"AGF2 | "G"G6 :|

%%sep 1 1 500

